X: 32308
T: Pigeon On The Gate, The
R: reel
M: 4/4
K: Edorian
BE~E2 BEdE|BE~E2 dBAF|D2FD AD~D2|DEFA BAFA|
BE~E2 BEdE|BE~E2 defa|bfef dBAF|DEFD E2dc:|
|:Beed e3d|Bdef gfed|Bdce d3B|Adde fdec|
Beed e3d|Bdef g2fg|afge fdec|dBAF E2dc:|

